src/icons/octoface.svg

<svg width="16" height="16" viewBox="0 0 16 16" fill="none" xmlns="http://www.w3.org/2000/svg">
<path fill-rule="evenodd" clip-rule="evenodd" d="M13.8634 5.67254C13.9771 5.39254 14.3446 4.28129 13.7496 2.77629C13.7496 2.77629 12.8309 2.48754 10.7396 3.91379C9.8646 3.66879 8.92835 3.63379 8.00085 3.63379C7.07335 3.63379 6.1371 3.66879 5.2621 3.91379C3.17085 2.47879 2.2521 2.77629 2.2521 2.77629C1.6571 4.28129 2.0246 5.39254 2.13835 5.67254C1.4296 6.43379 1.00085 7.41379 1.00085 8.60379C1.00085 13.11 3.9146 14.125 7.98335 14.125C12.0521 14.125 15.0009 13.11 15.0009 8.60379C15.0009 7.41379 14.5721 6.43379 13.8634 5.67254ZM8.00085 13.2675C5.11335 13.2675 2.76835 13.1363 2.76835 10.3363C2.76835 9.67129 3.10085 9.04129 3.66085 8.52504C4.5971 7.66754 6.19835 8.12254 8.00085 8.12254C9.8121 8.12254 11.3959 7.66754 12.3409 8.52504C12.9096 9.04129 13.2334 9.66254 13.2334 10.3363C13.2334 13.1275 10.8884 13.2675 8.00085 13.2675ZM5.8046 8.88379C5.2271 8.88379 4.7546 9.58379 4.7546 10.4413C4.7546 11.2988 5.2271 12.0075 5.8046 12.0075C6.3821 12.0075 6.8546 11.3075 6.8546 10.4413C6.8546 9.57504 6.3821 8.88379 5.8046 8.88379ZM10.1971 8.88379C9.61961 8.88379 9.14711 9.57504 9.14711 10.4413C9.14711 11.3075 9.61961 12.0075 10.1971 12.0075C10.7746 12.0075 11.2471 11.3075 11.2471 10.4413C11.2471 9.57504 10.7834 8.88379 10.1971 8.88379Z" fill="white"/>
</svg>

<svg width="16" height="16" xmlns="http://www.w3.org/2000/svg"><path fill-rule="evenodd" clip-rule="evenodd" d="M13.863 5.673c.114-.28.482-1.392-.113-2.897 0 0-.92-.288-3.01 1.138-.875-.245-1.812-.28-2.74-.28-.927 0-1.863.035-2.738.28-2.091-1.435-3.01-1.138-3.01-1.138-.595 1.505-.227 2.617-.114 2.897-.708.76-1.137 1.74-1.137 2.93 0 4.507 2.914 5.522 6.982 5.522 4.07 0 7.018-1.015 7.018-5.521 0-1.19-.429-2.17-1.138-2.931zm-5.862 7.595c-2.888 0-5.233-.132-5.233-2.932 0-.665.333-1.295.893-1.811.936-.857 2.537-.402 4.34-.402 1.811 0 3.395-.455 4.34.402.569.516.892 1.138.892 1.811 0 2.791-2.345 2.931-5.232 2.931zM5.805 8.883c-.578 0-1.05.7-1.05 1.557 0 .858.472 1.566 1.05 1.566.577 0 1.05-.7 1.05-1.566 0-.866-.473-1.557-1.05-1.557zm4.392 0c-.577 0-1.05.691-1.05 1.557s.473 1.566 1.05 1.566c.578 0 1.05-.7 1.05-1.566 0-.866-.464-1.557-1.05-1.557z"/></svg>
